packages/kaspersky-hexa-ui-icons/src/iconsSVGs/24/CustomSettings.svg

<svg width="24" height="24" viewBox="0 0 24 24" fill="none" xmlns="http://www.w3.org/2000/svg">
<path fill-rule="evenodd" clip-rule="evenodd" d="M4 3C4.55228 3 5 3.44772 5 4V7.17071C6.16519 7.58254 7 8.69378 7 10C7 11.3062 6.16519 12.4175 5 12.8293V20C5 20.5523 4.55228 21 4 21C3.44772 21 3 20.5523 3 20V12.8293C1.83481 12.4175 1 11.3062 1 10C1 8.69378 1.83481 7.58254 3 7.17071V4C3 3.44772 3.44772 3 4 3ZM3 10C3 9.44772 3.44772 9 4 9C4.55228 9 5 9.44772 5 10C5 10.5523 4.55228 11 4 11C3.44772 11 3 10.5523 3 10Z" fill="black"/>
<path fill-rule="evenodd" clip-rule="evenodd" d="M20 3C20.5523 3 21 3.44772 21 4V7.17071C22.1652 7.58254 23 8.69378 23 10C23 11.3062 22.1652 12.4175 21 12.8293V20C21 20.5523 20.5523 21 20 21C19.4477 21 19 20.5523 19 20V12.8293C17.8348 12.4175 17 11.3062 17 10C17 8.69378 17.8348 7.58254 19 7.17071V4C19 3.44772 19.4477 3 20 3ZM19 10C19 9.44772 19.4477 9 20 9C20.5523 9 21 9.44772 21 10C21 10.5523 20.5523 11 20 11C19.4477 11 19 10.5523 19 10Z" fill="black"/>
<path fill-rule="evenodd" clip-rule="evenodd" d="M13 20C13 20.5523 12.5523 21 12 21C11.4477 21 11 20.5523 11 20V16.8293C9.83481 16.4175 9 15.3062 9 14C9 12.6938 9.83481 11.5825 11 11.1707V4C11 3.44771 11.4477 3 12 3C12.5523 3 13 3.44771 13 4V11.1707C14.1652 11.5825 15 12.6938 15 14C15 15.3062 14.1652 16.4175 13 16.8293V20ZM12 15C11.4477 15 11 14.5523 11 14C11 13.4477 11.4477 13 12 13C12.5523 13 13 13.4477 13 14C13 14.5523 12.5523 15 12 15Z" fill="black"/>
</svg>

<svg xmlns="http://www.w3.org/2000/svg" width="24" height="24" fill="none" viewBox="0 0 24 24"><path fill="#000" fill-rule="evenodd" d="M12 21c.5523 0 1-.4477 1-1v-3.1707c1.1652-.4118 2-1.5231 2-2.8293s-.8348-2.4175-2-2.8293V4c0-.5523-.4477-1-1-1s-1 .4477-1 1v7.1707C9.8348 11.5825 9 12.6938 9 14s.8348 2.4175 2 2.8293V20c0 .5523.4477 1 1 1M4 3c.5523 0 1 .4477 1 1v3.1707C6.1652 7.5825 7 8.6937 7 10s-.8348 2.4175-2 2.8293V20c0 .5523-.4477 1-1 1s-1-.4477-1-1v-7.1707C1.8348 12.4175 1 11.3062 1 10s.8348-2.4175 2-2.8293V4c0-.5523.4477-1 1-1m16 0c.5523 0 1 .4477 1 1v3.1707c1.1652.4118 2 1.523 2 2.8293s-.8348 2.4175-2 2.8293V20c0 .5523-.4477 1-1 1s-1-.4477-1-1v-7.1707c-1.1652-.4118-2-1.5231-2-2.8293s.8348-2.4175 2-2.8293V4c0-.5523.4477-1 1-1M3 10c0-.5523.4477-1 1-1s1 .4477 1 1-.4477 1-1 1-1-.4477-1-1m16 0c0-.5523.4477-1 1-1s1 .4477 1 1-.4477 1-1 1-1-.4477-1-1m-8 4c0 .5523.4477 1 1 1s1-.4477 1-1-.4477-1-1-1-1 .4477-1 1"/></svg>
